!! 00000] TT[WS
!!!OTL: Fang sijie
!!!ARE: Asia, China, Shanxi Dingxiang
!! Ethnic Group: Han
!! WII, 203
!!!SCT: J0704
!!!YEM: Copyright 1995, estate of Helmut Schaffrath.
**kern
*ICvox
*Ivox
*M2/4
*k[b-e-a-]
*E-:
{8gg
8cc
8ee-
8ff
=1
8gg
8gg
8ff
8ee-
=2
8gg
8gg
8cc
8ee-
=3
8cc
8b-
4g}
=4
{8b-
8g
8b-
8cc
=5
4.ee-
8cc
=6
4gg
8ff
8ee-
=7
8cc
8b-
8g
8cc
=8
2b-}
=9
{8b-
8cc
4ee-
=10
8gg
4ff
8ee-
=11
4g
4b-
=12
4ee-
8cc
8b-
=13
8b-
8f
8g
8f
=14
2e-}
=15
{8g
4g
8b-
=16
2cc
=17
8cc
8ee-
8cc
8b-
=18
8b-
8f
8g
8f
=19
4.e-
8b-
=20
8g
8f
8e-
8c
=21
2e-}
==
!!!AGN: Xiaodiao, Shidiao. Fengsu, Sichun
!!!ONB: ESAC (Essen Associative Code) Database: CHINA
!!!AMT: simple duple
!!!AIN: vox
!!!EED: Helmut Schaffrath
!!!EEV: 1.0
*-
